X:1
T: Peter's Peerie Boat
C:Tom Anderson
R:Jig
Q:180
K:D
M:6/8
L:1/16
|:d4d2 D4D2|E2F2G2 A2B2c2|d4d2 B2e2d2|c2A2A2 A2B2c2|
d4d2 D4D2|E2F2G2 A2B2c2|d4A2 G2F2E2|1F2D2D2 D2B2c2:|2F2D2D2 D4A2|
d4d2 f4d2|c4c2 e4c2|B4B2 d2c2B2|A6 A4F2|G2F2G2 B2A2G2|F4A2 d6|E4G2 B6|C4E2 A6|
d2c2d2 f2e2d2|c2B2c2 e2d2c2|B2^A2B2 d2c2B2|A6 A4F2|G2F2G2 B2A2G2|F4A2 a4g2|f2e2d2 A2d2c2|d6D6||
